X: 6
T: Khusidl from Podolia    [Em]
D: Konsonans Retro "a Podolian Affair"
Z: 2011 John Chambers <jc:trillian.mit.edu>
M: 4/4
L: 1/8
K: Em
B, \
|:\
"Em"E2EB, EGBG | "Am"A2AG "Em"ABG2 | "Em"BAAG "D"ABcd | "G"B3A "B7"GFE^D || "Em"E2EB, EGBG |
"Am"A2AG "Em"ABG2 | "G"GDDG "F"G=FFE | "Em"E6 z4 :: "D"[BG][cA][cA][cA] [cA][BG][AF][cA] | "G"[BG]zz2 z2z2 |
"D"[BG][cA][cA][cA] [cA][BG][AF][cA] | "G"[BG]zz2 z2z2 || "D"[^G^E][AF][AF][AF] [AF][BG][cA][^c^A] | "G"[dB][cA][cA][BG] [BG][AF][AF][GE] | "G"GDDG "F"G=FFE | "Em"E6 Z2 :|

%%sep 1 1 500

